img/footer/linked.svg

<svg width="40" height="41" viewBox="0 0 40 41" fill="none" xmlns="http://www.w3.org/2000/svg">
<g clip-path="url(#clip0)">
<rect opacity="0.1" y="0.404175" width="40" height="40" rx="20" fill="#5A7184"/>
<path d="M26.3333 13.7375H14.302C13.7708 13.7375 13.3333 14.2063 13.3333 14.7688V26.7375C13.3333 27.3 13.7708 27.7375 14.302 27.7375H26.3333C26.8645 27.7375 27.3333 27.3 27.3333 26.7375V14.7688C27.3333 14.2063 26.8645 13.7375 26.3333 13.7375ZM17.552 25.7375H15.4895V19.0813H17.552V25.7375ZM16.5208 18.1438C15.8333 18.1438 15.302 17.6125 15.302 16.9563C15.302 16.3 15.8333 15.7375 16.5208 15.7375C17.177 15.7375 17.7083 16.3 17.7083 16.9563C17.7083 17.6125 17.177 18.1438 16.5208 18.1438ZM25.3333 25.7375H23.2395V22.4875C23.2395 21.7375 23.2395 20.7375 22.177 20.7375C21.0833 20.7375 20.927 21.5813 20.927 22.4563V25.7375H18.8645V19.0813H20.8333V19.9875H20.8645C21.1458 19.4563 21.8333 18.8938 22.8333 18.8938C24.927 18.8938 25.3333 20.3 25.3333 22.0813V25.7375Z" fill="#5A7184"/>
</g>
<defs>
<clipPath id="clip0">
<rect width="40" height="40.0599" fill="white" transform="translate(0 0.404175)"/>
</clipPath>
</defs>
</svg>

<svg width="40" height="41" fill="none" xmlns="http://www.w3.org/2000/svg"><g clip-path="url(#prefix__clip0)" fill="#5A7184"><rect opacity=".1" y=".404" width="40" height="40" rx="20"/><path d="M26.333 13.738H14.302c-.531 0-.969.468-.969 1.03v11.97c0 .562.438 1 .969 1h12.031c.532 0 1-.438 1-1v-11.97c0-.562-.468-1.03-1-1.03zm-8.781 12h-2.063V19.08h2.063v6.657zm-1.031-7.594c-.688 0-1.219-.531-1.219-1.188a1.22 1.22 0 011.219-1.218c.656 0 1.187.562 1.187 1.218 0 .657-.531 1.188-1.187 1.188zm8.812 7.594H23.24v-3.25c0-.75 0-1.75-1.063-1.75-1.094 0-1.25.843-1.25 1.718v3.282h-2.063V19.08h1.97v.907h.03c.282-.532.97-1.094 1.97-1.094 2.093 0 2.5 1.406 2.5 3.187v3.657z"/></g><defs><clipPath id="prefix__clip0"><path fill="#fff" transform="translate(0 .404)" d="M0 0h40v40.06H0z"/></clipPath></defs></svg>
